icons/Business/mail-add-line.svg

<svg viewBox="0 0 24 24" xmlns="http://www.w3.org/2000/svg"><path d="M22 13H20V7.23792L12.0718 14.338L4 7.21594V19H14V21H3C2.44772 21 2 20.5523 2 20V4C2 3.44772 2.44772 3 3 3H21C21.5523 3 22 3.44772 22 4V13ZM4.51146 5L12.0619 11.662L19.501 5H4.51146ZM21 18H24V20H21V23H19V20H16V18H19V15H21V18Z"/></svg>

<svg xmlns="http://www.w3.org/2000/svg" viewBox="0 0 24 24">
    <g>
        <path fill="none" d="M0 0h24v24H0z"/>
        <path d="M22 13h-2V7.238l-7.928 7.1L4 7.216V19h10v2H3a1 1 0 0 1-1-1V4a1 1 0 0 1 1-1h18a1 1 0 0 1 1 1v9zM4.511 5l7.55 6.662L19.502 5H4.511zM21 18h3v2h-3v3h-2v-3h-3v-2h3v-3h2v3z"/>
    </g>
</svg>
